korla/apps/scalable/antimicro.svg

<!DOCTYPE svg  PUBLIC '-//W3C//DTD SVG 1.1//EN'  'http://www.w3.org/Graphics/SVG/1.1/DTD/svg11.dtd'>
<svg style="clip-rule:evenodd;fill-rule:evenodd;stroke-linejoin:round;stroke-miterlimit:1.41421" version="1.1" viewBox="0 0 64 64" xmlns="http://www.w3.org/2000/svg">
 <g transform="translate(-435.185 -496.427)">
  <g transform="matrix(1.0256,0,0,1,-11.33,5.47396)">
   <circle cx="481.696" cy="521.923" r="9.125" style="fill:url(#_Linear1)"/>
   <circle cx="451.321" cy="522.048" r="8.75" style="fill:url(#_Linear2)"/>
  </g>
  <g transform="matrix(1.08909,0,0,1.08909,-41.6213,-41.1156)">
   <path d="m493.634 518.794c-1.849-7.735-5.198-9.772-8.897-9.432h-6.066c-0.034-4.096-2.321-4.776-11.486-4.776s-11.449 0.142-11.487 4.776h-7.846c-3.005 0-5.571 2.962-7.116 9.432-2.093 8.741-1.48 21.439 2.781 22.46 2.63 0.629 6.033-3.347 8.745-8.536l7.002 2.611c0.906 4.964 4.849 4.756 7.921 4.756 3.085 0 6.654 0.043 7.947-4.901l6.915-2.578c2.722 5.244 6.158 9.282 8.806 8.648 4.261-1.021 4.874-13.719 2.781-22.46zm-10.667-3.302c1.151 0 2.081 0.932 2.081 2.081 0 1.15-0.93 2.082-2.081 2.082-1.15 0-2.08-0.932-2.08-2.082 0-1.149 0.93-2.081 2.08-2.081zm-25.212 7.739c0 0.454-0.369 0.823-0.823 0.823h-2.85v2.848c0 0.455-0.369 0.823-0.823 0.823h-2.732c-0.454 0-0.823-0.368-0.823-0.823v-2.848h-1.852-0.997c-0.454 0-0.823-0.369-0.823-0.823v-2.732c0-0.455 0.369-0.823 0.823-0.823h2.849v-2.85c0-0.455 0.369-0.823 0.823-0.823h2.732c0.454 0 0.823 0.368 0.823 0.823v2.85h2.85c0.454 0 0.823 0.368 0.823 0.823v2.732zm20.921 0.715c-1.151 0-2.08-0.933-2.08-2.082 0-1.148 0.93-2.081 2.08-2.081 1.151 0 2.081 0.933 2.081 2.081-1e-3 1.149-0.93 2.082-2.081 2.082zm2.211 2.21c0-1.15 0.93-2.081 2.08-2.081 1.151 0 2.081 0.931 2.081 2.081s-0.93 2.081-2.081 2.081c-1.15 0-2.08-0.931-2.08-2.081zm6.372-2.21c-0.415 0-0.777-0.151-1.1-0.359-0.577-0.37-0.981-0.987-0.981-1.723s0.404-1.352 0.981-1.722c0.323-0.208 0.685-0.359 1.1-0.359 1.15 0 2.08 0.933 2.08 2.081 0 1.149-0.93 2.082-2.08 2.082z" style="fill-rule:nonzero;fill:url(#_Linear3)"/>
  </g>
 </g>
 <g transform="matrix(.468975 0 0 .468975 -187.103 -210.595)">
  <circle cx="467.071" cy="540.298" r="5" style="fill:url(#_Linear4)"/>
 </g>
 <g transform="matrix(.468975 0 0 .468975 -187.103 -210.595)">
  <circle cx="467.321" cy="528.798" r="5" style="fill:url(#_Linear5)"/>
 </g>
 <defs>
  <linearGradient id="_Linear1" x2="1" gradientTransform="matrix(1.34099e-15,-21.9,21.9,1.34099e-15,481.24,531.048)" gradientUnits="userSpaceOnUse">
   <stop style="stop-color:rgb(240,94,58)" offset="0"/>
   <stop style="stop-color:rgb(253,228,106)" offset="1"/>
  </linearGradient>
  <linearGradient id="_Linear2" x2="1" gradientTransform="matrix(1.28588e-15,-21,21,1.28588e-15,450.884,530.798)" gradientUnits="userSpaceOnUse">
   <stop style="stop-color:rgb(134,137,137)" offset="0"/>
   <stop style="stop-color:rgb(185,189,193)" offset="1"/>
  </linearGradient>
  <linearGradient id="_Linear3" x2="1" gradientTransform="matrix(3.24531e-15,-53,53,3.24531e-15,469.571,555.798)" gradientUnits="userSpaceOnUse">
   <stop style="stop-color:rgb(32,32,32)" offset="0"/>
   <stop style="stop-color:rgb(32,32,32)" offset=".5"/>
   <stop style="stop-color:rgb(90,90,92)" offset="1"/>
  </linearGradient>
  <linearGradient id="_Linear4" x2="1" gradientTransform="matrix(7.34788e-16,-12,12,7.34788e-16,466.821,545.298)" gradientUnits="userSpaceOnUse">
   <stop style="stop-color:rgb(127,135,135)" offset="0"/>
   <stop style="stop-color:rgb(159,185,210)" offset="1"/>
  </linearGradient>
  <linearGradient id="_Linear5" x2="1" gradientTransform="matrix(7.34788e-16,-12,12,7.34788e-16,467.071,533.798)" gradientUnits="userSpaceOnUse">
   <stop style="stop-color:rgb(0,136,255)" offset="0"/>
   <stop style="stop-color:rgb(2,195,255)" offset="1"/>
  </linearGradient>
 </defs>
</svg>

<?xml version="1.0" encoding="UTF-8" standalone="no"?>
<!DOCTYPE svg PUBLIC "-//W3C//DTD SVG 1.1//EN" "http://www.w3.org/Graphics/SVG/1.1/DTD/svg11.dtd">
<svg width="100%" height="100%" viewBox="0 0 64 64" version="1.1" xmlns="http://www.w3.org/2000/svg" xmlns:xlink="http://www.w3.org/1999/xlink" xml:space="preserve" xmlns:serif="http://www.serif.com/" style="fill-rule:evenodd;clip-rule:evenodd;stroke-linejoin:round;stroke-miterlimit:1.41421;">
    <g transform="matrix(1,0,0,1,-435.185,-496.427)">
        <g transform="matrix(1.0256,0,0,1,-11.33,5.47396)">
            <circle cx="481.696" cy="521.923" r="9.125" style="fill:url(#_Linear1);"/>
            <circle cx="451.321" cy="522.048" r="8.75" style="fill:url(#_Linear2);"/>
        </g>
        <g transform="matrix(1.08909,0,0,1.08909,-41.6213,-41.1156)">
            <path d="M493.634,518.794C491.785,511.059 488.436,509.022 484.737,509.362L478.671,509.362C478.637,505.266 476.35,504.586 467.185,504.586C458.02,504.586 455.736,504.728 455.698,509.362C455.698,509.362 449.873,509.362 447.852,509.362C444.847,509.362 442.281,512.324 440.736,518.794C438.643,527.535 439.256,540.233 443.517,541.254C446.147,541.883 449.55,537.907 452.262,532.718L459.264,535.329C460.17,540.293 464.113,540.085 467.185,540.085C470.27,540.085 473.839,540.128 475.132,535.184L482.047,532.606C484.769,537.85 488.205,541.888 490.853,541.254C495.114,540.233 495.727,527.535 493.634,518.794ZM482.967,515.492C484.118,515.492 485.048,516.424 485.048,517.573C485.048,518.723 484.118,519.655 482.967,519.655C481.817,519.655 480.887,518.723 480.887,517.573C480.887,516.424 481.817,515.492 482.967,515.492ZM457.755,523.231C457.755,523.685 457.386,524.054 456.932,524.054L454.082,524.054L454.082,526.902C454.082,527.357 453.713,527.725 453.259,527.725L450.527,527.725C450.073,527.725 449.704,527.357 449.704,526.902L449.704,524.054L447.852,524.054L446.855,524.054C446.401,524.054 446.032,523.685 446.032,523.231L446.032,520.499C446.032,520.044 446.401,519.676 446.855,519.676L449.704,519.676L449.704,516.826C449.704,516.371 450.073,516.003 450.527,516.003L453.259,516.003C453.713,516.003 454.082,516.371 454.082,516.826L454.082,519.676L456.932,519.676C457.386,519.676 457.755,520.044 457.755,520.499L457.755,523.231ZM478.676,523.946C477.525,523.946 476.596,523.013 476.596,521.864C476.596,520.716 477.526,519.783 478.676,519.783C479.827,519.783 480.757,520.716 480.757,521.864C480.756,523.013 479.827,523.946 478.676,523.946ZM480.887,526.156C480.887,525.006 481.817,524.075 482.967,524.075C484.118,524.075 485.048,525.006 485.048,526.156C485.048,527.306 484.118,528.237 482.967,528.237C481.817,528.237 480.887,527.306 480.887,526.156ZM487.259,523.946C486.844,523.946 486.482,523.795 486.159,523.587C485.582,523.217 485.178,522.6 485.178,521.864C485.178,521.128 485.582,520.512 486.159,520.142C486.482,519.934 486.844,519.783 487.259,519.783C488.409,519.783 489.339,520.716 489.339,521.864C489.339,523.013 488.409,523.946 487.259,523.946Z" style="fill:url(#_Linear3);fill-rule:nonzero;"/>
        </g>
    </g>
    <g transform="matrix(0.468975,0,0,0.468975,-187.103,-210.595)">
        <circle cx="467.071" cy="540.298" r="5" style="fill:url(#_Linear4);"/>
    </g>
    <g transform="matrix(0.468975,0,0,0.468975,-187.103,-210.595)">
        <circle cx="467.321" cy="528.798" r="5" style="fill:url(#_Linear5);"/>
    </g>
    <defs>
        <linearGradient id="_Linear1" x1="0" y1="0" x2="1" y2="0" gradientUnits="userSpaceOnUse" gradientTransform="matrix(1.34099e-15,-21.9,21.9,1.34099e-15,481.24,531.048)"><stop offset="0" style="stop-color:rgb(240,94,58);stop-opacity:1"/><stop offset="1" style="stop-color:rgb(253,228,106);stop-opacity:1"/></linearGradient>
        <linearGradient id="_Linear2" x1="0" y1="0" x2="1" y2="0" gradientUnits="userSpaceOnUse" gradientTransform="matrix(1.28588e-15,-21,21,1.28588e-15,450.884,530.798)"><stop offset="0" style="stop-color:rgb(134,137,137);stop-opacity:1"/><stop offset="1" style="stop-color:rgb(185,189,193);stop-opacity:1"/></linearGradient>
        <linearGradient id="_Linear3" x1="0" y1="0" x2="1" y2="0" gradientUnits="userSpaceOnUse" gradientTransform="matrix(3.24531e-15,-53,53,3.24531e-15,469.571,555.798)"><stop offset="0" style="stop-color:rgb(32,32,32);stop-opacity:1"/><stop offset="0.5" style="stop-color:rgb(32,32,32);stop-opacity:1"/><stop offset="1" style="stop-color:rgb(90,90,92);stop-opacity:1"/></linearGradient>
        <linearGradient id="_Linear4" x1="0" y1="0" x2="1" y2="0" gradientUnits="userSpaceOnUse" gradientTransform="matrix(7.34788e-16,-12,12,7.34788e-16,466.821,545.298)"><stop offset="0" style="stop-color:rgb(127,135,135);stop-opacity:1"/><stop offset="1" style="stop-color:rgb(159,185,210);stop-opacity:1"/></linearGradient>
        <linearGradient id="_Linear5" x1="0" y1="0" x2="1" y2="0" gradientUnits="userSpaceOnUse" gradientTransform="matrix(7.34788e-16,-12,12,7.34788e-16,467.071,533.798)"><stop offset="0" style="stop-color:rgb(0,136,255);stop-opacity:1"/><stop offset="1" style="stop-color:rgb(2,195,255);stop-opacity:1"/></linearGradient>
    </defs>
</svg>
